!!!OTL: Osterlied des 15. Jahrhunderts
!!!ARE: Europa, Mitteleuropa, Deutschland
!!!SCT: A0553A
!!!YEM: Copyright 1995, estate of Helmut Schaffrath.
**kern
*ICvox
*Ivox
!! Mixed meters:  4/1; 6/1
*M4/1
*k[b-]
*d:
=1
{1d
1a
1e
1g
=2
1fn
1e
0d}
=3
{1a
1b
1ccn
1b
=4
1a
1g
1a
2r}
{2a
=5
1dd
1b
1ccn
1a
=6
*M6/1
0g
0fn
0e}
=7
*M4/1
{1d
1a
1e
1g
=8
*M6/1
0fn
0e
0d}
=9
*M4/1
{1cn
1d
1e
1d
=10
1g
1a
2fn
2d
1e
=11
[0d
0d]}
==
!!!AGN: Romanze, Ballade, Lied, religioeses Lied
!! H. Finck 1536 No. 1
!!!ONB: ESAC (Essen Associative Code) Database: ALTDEU
!!!AMT: irregular
!!!AIN: vox
!!!EED: Helmut Schaffrath
!!!EEV: 1.0
*-
